**kern
*staff1
=1-
*clefG2
*k[]
*C:
*M4/4
2r
4r
{[4c/
=2
4c/]
2d/
[4e/
=3||
4e/]
2f/
8e/L
8d/J
=4
4g/
4c/
2d/}
=5
1r
=6
8r
{8f#/
12g\L
12b-\
12dd\J
8ff\L
8ee\
8dd\
8dd-\J
=7
4cc\
4r
8dd\L
8dd-\
8cc\
8b\J
=8
8b-/L
8a/
8a-/
8f/J
8e-/L
8c/
8g/
8g-/J
=9
8f/L
8e/
8d/
8c/J
4B/
[4c/
=10
4c/]
2d/
[4e/
=11||
4e/]
2f/
8e/L
8d/J
=12
4g/
4c/
2d/}
=13
1r
=14
1r
=15
1r
=16
1r
=17
1r
=18
{8gg\L
8gg-\
8ff\
8ee\J
8dd\L
8cc\
8b\
8a\J
=19||
12b-\L
12cc\
12b-\J
8a/L
8g/J
8f/L
8d-/
8c/
8B-/J
=20
8A/L
8c/
8e/
8f/J
8g/L
8f/
8d/
8c/J
=21
8a-/L
8cc/
8b-/
8an/J
8a-/L
8g-/
8e-/
8c/J
=22
8d-/L
8B/
8c/
8f/J
8e/L
8dn/
8g/
8f/J
=23
8e/L
8A/
8c/
8e/J
8d/L
8d-/
8dn/J
8r
=24
8r
8c#/L
8d/
8e/J
8f/L
8g/
8a/
8cc/J
=25
8ee\L
8dd\J}
4r
4r
{8g/L
8a/J
=26
8cc\L
8ee\
8dd\
8cc\J
4b\
4r
=27||
8dd\L
8b\
8cc\
8g\J
4r
8r
[8b\
=28
4b\]
8a/L
8a-/J
8g/L
8g-/
8f/
8e/J
=29
8d/L
8c/
8B/
8d/J
8f/L
8a-/
8g/
8f/J
=30
8e/L
8c/
8c#/
8d/J
8B-/L
8A-/
8An/
8cn/J
=31
8g/L
8f/J}
4r
2r
=32
1r
=33
2r
8r
{8e/L
8f/
8f#/J
=34
8g/L
8g-/
8f/
8e/J
8d/L
8c/
8B/
8d/J
=35||
8f/L
8a-/
8g/
8f/J
8e/L
8d#/
8e/
8g/J
=36
8a\L
8b\
8dd\
8b\J
8dd-/L
8b-/
8g-/
8e-/J
=37
12cc\L
12b\
12b-\J
8a/L
8f/J
8d/L
8c/
8g/
8a/J
=38
8b-/L
8d/
8d#/
8e/J
8a/L
8a-/
8g/
8g-/J
=39
8f/L
8c/
8d/
8e-/J
8B-/L
8Bn/
8d/
8B/J
=40
8c/L
8G/J}
4r
2r
=41
2r
4r
8r
{[8d/
=42
8d/L]
8B-/
8A/
8G/J
8G-/L
8A/
8c/
8e-/J
=43||
8c/L
8c#/
8d/
8cn/J
8B/L
8d/
8f/
8a-/J
=44
8a/L
8d#/
8e/
8g/J
8f/L
8e/
8dn/
8c/J
=45
8B/L
8d/
8f/
8a-/J
4g/}
4r
=46
2r
{8dd\L
8dd-\
8cc\
8b-\J
=47
8a/L
8f/
8d/
8c/J
8a-/L
8cc/J
4r
=48
8c/L
8f/
8d/
8e-/J
8en/L
8G/
8A/
8B/J
=49
8d/L
8c/
8B/
8c/J
8d#/L
8e/
8f/
8f#/J
=50
4g/}
4r
{8f#/L
8g/
8b-/
8dd/J
=51||
8ff\L
8dd\
8dd#\
8ee\J
8cc\L
8cc#\
8ddn\
8ccn\J
=52
8b-/L
8a/
8g/
8f/J
8e/L
8g/
8b-/
8dd/J
=53
4cc\}
4r
2r
=54
4r
{8d/L
8e/J
8f#/L
8g/
8a/
8b/J
=55
8cc/L
8b/
8a/
8g/J
4f#/}
4r
=56
4r
{8d/L
8e/J
8f/L
8g/
8a/
8b/J
=57
8cc/L
8b/
8a/
8g/J
4f/
8ee\L
8dd\J
=58
8cc\L
8b\
8cc\
8dd\J
4cc\}
4r
=59||
2r
8r
{8e/L
8f/
8f#/J
=60
8g/L
8g-/
8f/
8e/J
8d/L
8c/
8B/
8d/J
=61
8f/L
8a-/
8g/
8g-/J
4f/}
4r
=62
4r
{8dd\L
8dd-\J
8cc/L
8a/J
12b-\L
12cc\
12b-\J
=63
8a/L
8f/
8d/
8c/J
8a-/L
8cc/
8g/
8B/J
=64
8c/L
8f/
8d/
8d#/J
8e/L
8G/J}
4r
=65
1r
=66
{8g/L
8a/
8cc/
8ee/J
8g/L
8a/
8cc/
8ee/J
=67||
4dd\}
4r
2r
=68
2r
{8g-/L
8a/
8cc/
8ee/J
=69
8f/L
8a/
8cc/
8ee/J
8e/L
8g/
8a/
8b/J
=70
8dd\L
8dd-\J
4cc\}
2r
=71
{8dd\L
8dd-\
8cc\
8b-\J
8a/L
8f/
8d/
8c/J
=72
8a-/L
8cc/
8g/
8B/J
8c/L
8f/
8d/
8e-/J
=73
8e/L
8G/
8A/
8B/J
8d/L
8c/
8B/
8c/J
=74
8f/L
8e/
8e-/
8f/J
8a/L
8g/
8f#/
8g/J
=75||
8dd\L
8cc\
8b\
8cc\J
8dd#\L
8ee\
8ff\
8ff#\J
=76
8gg\L
8gg-\
8ff\
8ee\J
8dd\L
8dd-\
8cc\
8b\J
=77
8a/L
8a-/
8g/
8g-/J
8e-/L
8c/
8g-/
8an/J
=78
8r
8d/L
8d#/
8e/J
8a/L
8a-/
8g/
8g-/J
=79
8f/L
8c/
8e-/
8d/J
4B-/}
4r
=80
2r
4r
{[4B/
=81
4B/]
8d/L
8B/J
8c/L
8G/J}
4r
=82
4r
{12g\L
12b-\
12dd\J
8ff\L
8dd\
8dd#\
8ee\J
=83||
8cc\L
8cc#\
8dd\
8ccn\J
8b-/L
8a/
8g/
8f/J
=84
8e/L
8g/
8b-/
8dd-/J
8cc/L
8a/J}
4r
=85
2r
4r
{12c/L
12d/
12e/J
=86
8f#/L
8g/
8a/
8b/J
8cc/L
8b/
8a/
8g/J
=87
8f#/L
8d/
8d-/
8c/J
8e/L
8B/
8B-/
8A/J
=88
8d/L
8c#/
8d/
8e/J
8f/L
8g/
8a/
8cc/J
=89
8ee\L
8ee-\
8dd\
8dd-\J
8cc\L
8b\
8b-\
8a\J
=90
8a-/L
8f/
8e-/
8c/J
8g/L
8an/
8b/
8g/J
=91||
8a/L
8f/
8d/
8A/J
8c/L
8B-/
8Bn/
[8g/J
=92
1g_
=93
4g/]}
{8e/L
8c/J
8d/L
8e/
8f/
8a/J
=94
8g/L
8f/
8e/
8c/J
8c#/L
8d/
8B-/
8A-/J
=95
8A/L
8c/
8d/
8e/J
12a-/L
12b-/
12a-/J
8g/L
8f/J
=96
8e/L
8G/
8A/
8B/J
8d/L
8c/
8B/
8c/J
=97
8d#/L
8e/
8f/
8f#/J
8g/L
8fn/
8e/
8c/J
=98
4d/}
4r
2r
==
*-
